src/assets/img/icons/payment_system/not_selected/phone_bright.svg

<svg width="63" height="32" viewBox="0 0 63 32" fill="none" xmlns="http://www.w3.org/2000/svg">
<path fill-rule="evenodd" clip-rule="evenodd" d="M0 9C0 6.37665 2.12665 4.25 4.75 4.25H12.75C15.3734 4.25 17.5 6.37665 17.5 9V23C17.5 25.6234 15.3734 27.75 12.75 27.75H4.75C2.12665 27.75 0 25.6234 0 23V9ZM4.75 5.75C2.95507 5.75 1.5 7.20507 1.5 9V23C1.5 24.7949 2.95507 26.25 4.75 26.25H12.75C14.5449 26.25 16 24.7949 16 23V9C16 7.20507 14.5449 5.75 12.75 5.75H4.75ZM6.25 8.75C6.25 8.33579 6.58579 8 7 8H11C11.4142 8 11.75 8.33579 11.75 8.75C11.75 9.16421 11.4142 9.5 11 9.5H7C6.58579 9.5 6.25 9.16421 6.25 8.75ZM7.75 21.75C7.75 21.0596 8.30964 20.5 9 20.5C9.69036 20.5 10.25 21.0596 10.25 21.75C10.25 22.4404 9.69036 23 9 23C8.30964 23 7.75 22.4404 7.75 21.75ZM9 19C7.48122 19 6.25 20.2312 6.25 21.75C6.25 23.2688 7.48122 24.5 9 24.5C10.5188 24.5 11.75 23.2688 11.75 21.75C11.75 20.2312 10.5188 19 9 19Z" fill="#919EAB"/>
<path d="M25.524 13.156V7.29996H26.7V8.24796C26.876 7.91196 27.12 7.65196 27.432 7.46796C27.744 7.28396 28.108 7.19196 28.524 7.19196C29.42 7.19196 30 7.58396 30.264 8.36796C30.448 7.99996 30.712 7.71196 31.056 7.50396C31.4 7.29596 31.792 7.19196 32.232 7.19196C33.544 7.19196 34.2 7.97596 34.2 9.54396V13.156H32.988V9.60396C32.988 9.10796 32.9 8.74396 32.724 8.51196C32.556 8.27996 32.276 8.16396 31.884 8.16396C31.444 8.16396 31.096 8.31996 30.84 8.63196C30.584 8.93596 30.456 9.35196 30.456 9.87996V13.156H29.244V9.60396C29.244 9.10796 29.16 8.74396 28.992 8.51196C28.824 8.27996 28.544 8.16396 28.152 8.16396C27.712 8.16396 27.364 8.31996 27.108 8.63196C26.86 8.93596 26.736 9.35196 26.736 9.87996V13.156H25.524Z" fill="#919EAB"/>
<path d="M38.5585 13.264C37.9665 13.264 37.4545 13.14 37.0225 12.892C36.5905 12.644 36.2545 12.296 36.0145 11.848C35.7825 11.392 35.6665 10.852 35.6665 10.228C35.6665 9.60396 35.7825 9.06796 36.0145 8.61996C36.2545 8.16396 36.5905 7.81196 37.0225 7.56396C37.4545 7.31596 37.9665 7.19196 38.5585 7.19196C39.1345 7.19196 39.6385 7.31596 40.0705 7.56396C40.5025 7.81196 40.8385 8.16396 41.0785 8.61996C41.3185 9.06796 41.4385 9.60396 41.4385 10.228C41.4385 10.852 41.3185 11.392 41.0785 11.848C40.8385 12.296 40.5025 12.644 40.0705 12.892C39.6385 13.14 39.1345 13.264 38.5585 13.264ZM38.5585 12.328C39.0545 12.328 39.4545 12.148 39.7585 11.788C40.0625 11.428 40.2145 10.908 40.2145 10.228C40.2145 9.54796 40.0625 9.03196 39.7585 8.67996C39.4545 8.31996 39.0545 8.13996 38.5585 8.13996C38.0545 8.13996 37.6505 8.31996 37.3465 8.67996C37.0425 9.03196 36.8905 9.54796 36.8905 10.228C36.8905 10.908 37.0425 11.428 37.3465 11.788C37.6505 12.148 38.0545 12.328 38.5585 12.328Z" fill="#919EAB"/>
<path d="M46.0637 13.264C45.6157 13.264 45.2197 13.164 44.8757 12.964C44.5317 12.764 44.2757 12.496 44.1077 12.16V13.156H42.9197V4.69596H44.1317V8.24796C44.3077 7.92796 44.5637 7.67196 44.8997 7.47996C45.2437 7.28796 45.6317 7.19196 46.0637 7.19196C46.5837 7.19196 47.0357 7.31596 47.4197 7.56396C47.8117 7.81196 48.1117 8.16396 48.3197 8.61996C48.5357 9.06796 48.6437 9.60396 48.6437 10.228C48.6437 10.852 48.5357 11.392 48.3197 11.848C48.1117 12.304 47.8117 12.656 47.4197 12.904C47.0357 13.144 46.5837 13.264 46.0637 13.264ZM45.7637 12.328C46.2677 12.328 46.6677 12.148 46.9637 11.788C47.2677 11.428 47.4197 10.908 47.4197 10.228C47.4197 9.54796 47.2677 9.03196 46.9637 8.67996C46.6677 8.31996 46.2677 8.13996 45.7637 8.13996C45.2597 8.13996 44.8557 8.31996 44.5517 8.67996C44.2557 9.03196 44.1077 9.54796 44.1077 10.228C44.1077 10.908 44.2557 11.428 44.5517 11.788C44.8557 12.148 45.2597 12.328 45.7637 12.328Z" fill="#919EAB"/>
<path d="M50.0215 5.94396V4.68396H51.4375V5.94396H50.0215ZM50.1295 13.156V7.29996H51.3415V13.156H50.1295Z" fill="#919EAB"/>
<path d="M55.0755 13.264C54.4355 13.264 53.9555 13.084 53.6355 12.724C53.3235 12.364 53.1675 11.836 53.1675 11.14V4.69596H54.3795V11.068C54.3795 11.86 54.7035 12.256 55.3515 12.256C55.4475 12.256 55.5355 12.252 55.6155 12.244C55.7035 12.236 55.7915 12.22 55.8795 12.196L55.8555 13.168C55.5835 13.232 55.3235 13.264 55.0755 13.264Z" fill="#919EAB"/>
<path d="M59.6449 13.264C58.6849 13.264 57.9289 12.996 57.3769 12.46C56.8249 11.916 56.5489 11.176 56.5489 10.24C56.5489 9.63996 56.6689 9.11196 56.9089 8.65596C57.1569 8.19196 57.4969 7.83196 57.9289 7.57596C58.3609 7.31996 58.8569 7.19196 59.4169 7.19196C60.2249 7.19196 60.8609 7.45196 61.3249 7.97196C61.7889 8.48396 62.0209 9.19196 62.0209 10.096V10.504H57.7249C57.8129 11.72 58.4569 12.328 59.6569 12.328C59.9929 12.328 60.3209 12.276 60.6409 12.172C60.9689 12.068 61.2769 11.896 61.5649 11.656L61.9249 12.496C61.6609 12.736 61.3209 12.924 60.9049 13.06C60.4889 13.196 60.0689 13.264 59.6449 13.264ZM59.4649 8.04396C58.9609 8.04396 58.5609 8.19996 58.2649 8.51196C57.9689 8.82396 57.7889 9.23996 57.7249 9.75996H61.0009C60.9769 9.21596 60.8329 8.79596 60.5689 8.49996C60.3049 8.19596 59.9369 8.04396 59.4649 8.04396Z" fill="#919EAB"/>
<path d="M25.5 27.316V19.3H26.688V20.296C26.856 19.96 27.112 19.692 27.456 19.492C27.8 19.292 28.196 19.192 28.644 19.192C29.164 19.192 29.616 19.316 30 19.564C30.392 19.812 30.692 20.164 30.9 20.62C31.116 21.068 31.224 21.604 31.224 22.228C31.224 22.852 31.116 23.392 30.9 23.848C30.692 24.304 30.392 24.656 30 24.904C29.616 25.144 29.164 25.264 28.644 25.264C28.212 25.264 27.824 25.172 27.48 24.988C27.144 24.796 26.888 24.536 26.712 24.208V27.316H25.5ZM28.344 24.328C28.848 24.328 29.248 24.148 29.544 23.788C29.848 23.428 30 22.908 30 22.228C30 21.548 29.848 21.032 29.544 20.68C29.248 20.32 28.848 20.14 28.344 20.14C27.84 20.14 27.436 20.32 27.132 20.68C26.836 21.032 26.688 21.548 26.688 22.228C26.688 22.908 26.836 23.428 27.132 23.788C27.436 24.148 27.84 24.328 28.344 24.328Z" fill="#919EAB"/>
<path d="M32.7098 25.156V16.696H33.9218V20.212C34.1218 19.876 34.3898 19.624 34.7258 19.456C35.0698 19.28 35.4538 19.192 35.8778 19.192C37.2618 19.192 37.9538 19.976 37.9538 21.544V25.156H36.7418V21.616C36.7418 21.112 36.6418 20.744 36.4418 20.512C36.2498 20.28 35.9458 20.164 35.5298 20.164C35.0418 20.164 34.6498 20.32 34.3538 20.632C34.0658 20.936 33.9218 21.34 33.9218 21.844V25.156H32.7098Z" fill="#919EAB"/>
<path d="M42.2879 25.264C41.6959 25.264 41.1839 25.14 40.7519 24.892C40.3199 24.644 39.9839 24.296 39.7439 23.848C39.5119 23.392 39.3959 22.852 39.3959 22.228C39.3959 21.604 39.5119 21.068 39.7439 20.62C39.9839 20.164 40.3199 19.812 40.7519 19.564C41.1839 19.316 41.6959 19.192 42.2879 19.192C42.8639 19.192 43.3679 19.316 43.7999 19.564C44.2319 19.812 44.5679 20.164 44.8079 20.62C45.0479 21.068 45.1679 21.604 45.1679 22.228C45.1679 22.852 45.0479 23.392 44.8079 23.848C44.5679 24.296 44.2319 24.644 43.7999 24.892C43.3679 25.14 42.8639 25.264 42.2879 25.264ZM42.2879 24.328C42.7839 24.328 43.1839 24.148 43.4879 23.788C43.7919 23.428 43.9439 22.908 43.9439 22.228C43.9439 21.548 43.7919 21.032 43.4879 20.68C43.1839 20.32 42.7839 20.14 42.2879 20.14C41.7839 20.14 41.3799 20.32 41.0759 20.68C40.7719 21.032 40.6199 21.548 40.6199 22.228C40.6199 22.908 40.7719 23.428 41.0759 23.788C41.3799 24.148 41.7839 24.328 42.2879 24.328Z" fill="#919EAB"/>
<path d="M46.6491 25.156V19.3H47.8251V20.272C48.0251 19.92 48.2971 19.652 48.6411 19.468C48.9931 19.284 49.3851 19.192 49.8171 19.192C51.2011 19.192 51.8931 19.976 51.8931 21.544V25.156H50.6811V21.616C50.6811 21.112 50.5811 20.744 50.3811 20.512C50.1891 20.28 49.8851 20.164 49.4691 20.164C48.9811 20.164 48.5891 20.32 48.2931 20.632C48.0051 20.936 47.8611 21.34 47.8611 21.844V25.156H46.6491Z" fill="#919EAB"/>
<path d="M56.4311 25.264C55.4711 25.264 54.7151 24.996 54.1631 24.46C53.6111 23.916 53.3351 23.176 53.3351 22.24C53.3351 21.64 53.4551 21.112 53.6951 20.656C53.9431 20.192 54.2831 19.832 54.7151 19.576C55.1471 19.32 55.6431 19.192 56.2031 19.192C57.0111 19.192 57.6471 19.452 58.1111 19.972C58.5751 20.484 58.8071 21.192 58.8071 22.096V22.504H54.5111C54.5991 23.72 55.2431 24.328 56.4431 24.328C56.7791 24.328 57.1071 24.276 57.4271 24.172C57.7551 24.068 58.0631 23.896 58.3511 23.656L58.7111 24.496C58.4471 24.736 58.1071 24.924 57.6911 25.06C57.2751 25.196 56.8551 25.264 56.4311 25.264ZM56.2511 20.044C55.7471 20.044 55.3471 20.2 55.0511 20.512C54.7551 20.824 54.5751 21.24 54.5111 21.76H57.7871C57.7631 21.216 57.6191 20.796 57.3551 20.5C57.0911 20.196 56.7231 20.044 56.2511 20.044Z" fill="#919EAB"/>
</svg>

<svg width="63" height="32" fill="none" xmlns="http://www.w3.org/2000/svg"><path fill-rule="evenodd" clip-rule="evenodd" d="M0 9a4.75 4.75 0 0 1 4.75-4.75h8A4.75 4.75 0 0 1 17.5 9v14a4.75 4.75 0 0 1-4.75 4.75h-8A4.75 4.75 0 0 1 0 23V9Zm4.75-3.25A3.25 3.25 0 0 0 1.5 9v14a3.25 3.25 0 0 0 3.25 3.25h8A3.25 3.25 0 0 0 16 23V9a3.25 3.25 0 0 0-3.25-3.25h-8Zm1.5 3A.75.75 0 0 1 7 8h4a.75.75 0 0 1 0 1.5H7a.75.75 0 0 1-.75-.75Zm1.5 13a1.25 1.25 0 1 1 2.5 0 1.25 1.25 0 0 1-2.5 0ZM9 19a2.75 2.75 0 1 0 0 5.5A2.75 2.75 0 0 0 9 19Z" fill="#919EAB"/><path d="M25.524 13.156V7.3H26.7v.948c.176-.336.42-.596.732-.78a2.11 2.11 0 0 1 1.092-.276c.896 0 1.476.392 1.74 1.176.184-.368.448-.656.792-.864a2.228 2.228 0 0 1 1.176-.312c1.312 0 1.968.784 1.968 2.352v3.612h-1.212V9.604c0-.496-.088-.86-.264-1.092-.168-.232-.448-.348-.84-.348-.44 0-.788.156-1.044.468-.256.304-.384.72-.384 1.248v3.276h-1.212V9.604c0-.496-.084-.86-.252-1.092-.168-.232-.448-.348-.84-.348-.44 0-.788.156-1.044.468-.248.304-.372.72-.372 1.248v3.276h-1.212ZM38.559 13.264c-.592 0-1.104-.124-1.536-.372a2.586 2.586 0 0 1-1.009-1.044c-.232-.456-.348-.996-.348-1.62 0-.624.117-1.16.349-1.608.24-.456.575-.808 1.008-1.056.431-.248.944-.372 1.535-.372.577 0 1.08.124 1.513.372.431.248.768.6 1.008 1.056.24.448.36.984.36 1.608 0 .624-.12 1.164-.36 1.62-.24.448-.577.796-1.008 1.044-.432.248-.936.372-1.512.372Zm0-.936c.495 0 .896-.18 1.2-.54.303-.36.456-.88.456-1.56s-.153-1.196-.457-1.548c-.303-.36-.704-.54-1.2-.54-.504 0-.907.18-1.212.54-.303.352-.455.868-.455 1.548s.151 1.2.456 1.56c.303.36.707.54 1.212.54ZM46.064 13.264c-.448 0-.844-.1-1.188-.3-.344-.2-.6-.468-.768-.804v.996H42.92v-8.46h1.212v3.552c.176-.32.432-.576.768-.768a2.347 2.347 0 0 1 1.164-.288c.52 0 .972.124 1.356.372.392.248.692.6.9 1.056.216.448.324.984.324 1.608 0 .624-.108 1.164-.324 1.62a2.384 2.384 0 0 1-.9 1.056c-.384.24-.836.36-1.356.36Zm-.3-.936c.504 0 .904-.18 1.2-.54.304-.36.456-.88.456-1.56s-.152-1.196-.456-1.548c-.296-.36-.696-.54-1.2-.54s-.908.18-1.212.54c-.296.352-.444.868-.444 1.548s.148 1.2.444 1.56c.304.36.708.54 1.212.54ZM50.022 5.944v-1.26h1.416v1.26h-1.416Zm.108 7.212V7.3h1.212v5.856H50.13ZM55.075 13.264c-.64 0-1.12-.18-1.44-.54-.311-.36-.468-.888-.468-1.584V4.696h1.212v6.372c0 .792.325 1.188.973 1.188.096 0 .184-.004.264-.012.087-.008.175-.024.264-.048l-.025.972a3.406 3.406 0 0 1-.78.096ZM59.645 13.264c-.96 0-1.716-.268-2.268-.804-.552-.544-.828-1.284-.828-2.22 0-.6.12-1.128.36-1.584a2.711 2.711 0 0 1 1.02-1.08c.432-.256.928-.384 1.488-.384.808 0 1.444.26 1.908.78.464.512.696 1.22.696 2.124v.408h-4.296c.088 1.216.732 1.824 1.932 1.824.336 0 .664-.052.984-.156.328-.104.636-.276.924-.516l.36.84c-.264.24-.604.428-1.02.564a4.032 4.032 0 0 1-1.26.204Zm-.18-5.22c-.504 0-.904.156-1.2.468-.296.312-.476.728-.54 1.248H61c-.024-.544-.168-.964-.432-1.26-.264-.304-.632-.456-1.104-.456ZM25.5 27.316V19.3h1.188v.996c.168-.336.424-.604.768-.804.344-.2.74-.3 1.188-.3.52 0 .972.124 1.356.372.392.248.692.6.9 1.056.216.448.324.984.324 1.608 0 .624-.108 1.164-.324 1.62a2.384 2.384 0 0 1-.9 1.056c-.384.24-.836.36-1.356.36-.432 0-.82-.092-1.164-.276a1.946 1.946 0 0 1-.768-.78v3.108H25.5Zm2.844-2.988c.504 0 .904-.18 1.2-.54.304-.36.456-.88.456-1.56s-.152-1.196-.456-1.548c-.296-.36-.696-.54-1.2-.54s-.908.18-1.212.54c-.296.352-.444.868-.444 1.548s.148 1.2.444 1.56c.304.36.708.54 1.212.54ZM32.71 25.156v-8.46h1.212v3.516c.2-.336.468-.588.804-.756a2.492 2.492 0 0 1 1.152-.264c1.384 0 2.076.784 2.076 2.352v3.612h-1.212v-3.54c0-.504-.1-.872-.3-1.104-.192-.232-.496-.348-.912-.348-.488 0-.88.156-1.176.468-.288.304-.432.708-.432 1.212v3.312H32.71ZM42.288 25.264c-.592 0-1.104-.124-1.536-.372a2.586 2.586 0 0 1-1.008-1.044c-.232-.456-.348-.996-.348-1.62 0-.624.116-1.16.348-1.608.24-.456.576-.808 1.008-1.056.432-.248.944-.372 1.536-.372.576 0 1.08.124 1.512.372.432.248.768.6 1.008 1.056.24.448.36.984.36 1.608 0 .624-.12 1.164-.36 1.62-.24.448-.576.796-1.008 1.044-.432.248-.936.372-1.512.372Zm0-.936c.496 0 .896-.18 1.2-.54.304-.36.456-.88.456-1.56s-.152-1.196-.456-1.548c-.304-.36-.704-.54-1.2-.54-.504 0-.908.18-1.212.54-.304.352-.456.868-.456 1.548s.152 1.2.456 1.56c.304.36.708.54 1.212.54ZM46.65 25.156V19.3h1.175v.972c.2-.352.472-.62.816-.804a2.5 2.5 0 0 1 1.176-.276c1.384 0 2.076.784 2.076 2.352v3.612h-1.212v-3.54c0-.504-.1-.872-.3-1.104-.192-.232-.496-.348-.912-.348-.488 0-.88.156-1.176.468-.288.304-.432.708-.432 1.212v3.312H46.65ZM56.431 25.264c-.96 0-1.716-.268-2.268-.804-.552-.544-.828-1.284-.828-2.22 0-.6.12-1.128.36-1.584a2.711 2.711 0 0 1 1.02-1.08c.432-.256.928-.384 1.488-.384.808 0 1.444.26 1.908.78.464.512.696 1.22.696 2.124v.408h-4.296c.088 1.216.732 1.824 1.932 1.824.336 0 .664-.052.984-.156.328-.104.636-.276.924-.516l.36.84c-.264.24-.604.428-1.02.564a4.032 4.032 0 0 1-1.26.204Zm-.18-5.22c-.504 0-.904.156-1.2.468-.296.312-.476.728-.54 1.248h3.276c-.024-.544-.168-.964-.432-1.26-.264-.304-.632-.456-1.104-.456Z" fill="#919EAB"/></svg>
